X:140
T:New Gun Reel
O:No 140 William Clarke of Feltwell
M:4/4
L:1/8
N:First note in bar A4 could be G or A.
K:G
e|d<B g>d eAAe|d<B g>d e2ef|(g/f/e/d/) gd eAAf|g>e d>BG2G::D|G/G/G BG AEEA|G/G/G Bd e>de>g|e<g B<d eAAf|g>e dBG2||


